findly-builder/apps/searchassist/src/assets/icons/successCheck.svg

<svg width="60" height="60" viewBox="0 0 60 60" fill="none" xmlns="http://www.w3.org/2000/svg">
<circle cx="30" cy="30" r="30" fill="#28A745"/>
<path fill-rule="evenodd" clip-rule="evenodd" d="M40.1142 21.8062C40.4407 21.4547 40.9876 21.437 41.3358 21.7667C41.6634 22.077 41.6982 22.5844 41.429 22.936L41.3749 23.0001L26.7403 37.891C26.4277 38.2276 25.9143 38.2573 25.5666 37.9726L25.5034 37.9156L18.5325 30.9797C18.1926 30.6414 18.1885 30.089 18.5236 29.7457C18.8388 29.4226 19.3421 29.4 19.6836 29.6805L19.7457 29.7366L26.0856 36.0447L40.1142 21.8062Z" fill="white"/>
</svg>

<svg width="60" height="60" fill="none" xmlns="http://www.w3.org/2000/svg"><circle cx="30" cy="30" r="30" fill="#28A745"/><path fill-rule="evenodd" clip-rule="evenodd" d="M40.114 21.806a.858.858 0 0 1 1.222-.04.88.88 0 0 1 .093 1.17l-.054.064L26.74 37.891a.858.858 0 0 1-1.173.082l-.064-.057-6.97-6.936a.879.879 0 0 1-.01-1.234.858.858 0 0 1 1.16-.066l.063.057 6.34 6.308 14.028-14.239Z" fill="#fff"/></svg>
